X:57
%%etbk:tnset id:19,pos:3,rep:3x,ant:
%%etbk:wsite http://www.thesession.org/tunes/display/2323
%%etbk:skill ?
%%etbk:pldat 2013-11-25T19:40,2013-11-24T15:30,2013-05-22T16:23,2013-05-15T17:13
T: Jack Rowe
Z: Piano Box Version by Martin Fleischmann
H: Created 2013-02-19 /  Last Modified 2013-02-19
M: 4/4
L: 1/8
R: reel
K: Gmaj
|: !5!A3F !4!GFED | !2!(3EFG !2!AB !4!cABA | !1!G!2!B!3!d!5!g !4!e!5!g!3!d!2!B | !1!G!3!B!1!A!3!F !4!GFED |
!2!E!5!AAF !4!GFED | !2!(3EFG !2!AB !4!c2BA | !1!G!3!B!5!dB !2!AcBA | !1!G!2!E!1!DE !4!G4:|
|: !4!g3e !3!fedf | !2!efge !3!fedf | !2!e!1!B!2!B!1!B !2!efge | !3!fdef !4!g3!2!f |
!3!gbag !2!e!5!gfe | !2!d!1!B!3!BA BA!1!G!2!F | !1!GBdB !2!AcBA | !1!G!2!E!1!DE !4!G4:||
